X:438
T:Reel 438
M:4/4
K:Gmaj
L:1/8
d>c (3BAG d>B (3BAB |c>A (3AGA e>AF>A| (3BAG d>G B>G (3BAG |dcBA G2dc|:|| (3BcB A2 FGA2|G>g (3gfg d>B (3BAG |A>F (3FEF A>F (3AFF | (3BcB ef gedB| (3cBA BG ABG2:|
